symbolic/32x32/places/folder-brown-owncloud.svg

<svg xmlns="http://www.w3.org/2000/svg" width="32" height="32" version="1">
 <rect style="opacity:0.2" width="28" height="18" x="2" y="11" rx="1.4" ry="1.4"/>
 <path style="fill:#957552" d="M 2,22.6 C 2,23.376 2.6244,24 3.4,24 H 28.6 C 29.376,24 30,23.376 30,22.6 V 7.4 C 30,6.6244 29.376,6 28.6,6 H 16 C 13.9,6 13.2,3 11.1,3 H 3.4 C 2.6244,3 2,3.6244 2,4.4"/>
 <rect style="opacity:0.2" width="28" height="18" x="2" y="9" rx="1.4" ry="1.4"/>
 <rect style="fill:#e4e4e4" width="24" height="11" x="4" y="8" rx="1.4" ry="1.4"/>
 <rect style="fill:#ae8e6c" width="28" height="18" x="2" y="10" rx="1.4" ry="1.4"/>
 <path style="opacity:0.1;fill:#ffffff" d="M 3.4004,3 C 2.6248,3 2,3.6248 2,4.4004 V 5.4004 C 2,4.6248 2.6248,4 3.4004,4 H 11.1 C 13.2,4 13.9,7 16,7 H 28.6 C 29.375,7 30,7.6248 30,8.4004 V 7.4004 C 30,6.6248 29.375,6 28.6,6 H 16 C 13.9,6 13.2,3 11.1,3 Z"/>
 <circle style="fill:#3d3226;stroke:#ae8e6c;stroke-width:0.5;stroke-linecap:round;stroke-linejoin:round" cx="18.5" cy="18" r="2.25"/>
 <circle style="fill:#3d3226;stroke:#ae8e6c;stroke-width:0.5;stroke-linecap:round;stroke-linejoin:round" cx="23" cy="22" r="1.25"/>
 <circle style="fill:#3d3226;stroke:#ae8e6c;stroke-width:0.5;stroke-linecap:round;stroke-linejoin:round" cx="20.25" cy="20.75" r="2.5"/>
 <circle style="fill:#3d3226;stroke:#ae8e6c;stroke-width:0.5;stroke-linecap:round;stroke-linejoin:round" cx="11" cy="21" r="2.25"/>
 <circle style="fill:#3d3226;stroke:#ae8e6c;stroke-width:0.5;stroke-linecap:round;stroke-linejoin:round" cx="13.25" cy="16.25" r="1.5"/>
 <circle style="fill:#3d3226;stroke:#ae8e6c;stroke-width:0.5;stroke-linecap:round;stroke-linejoin:round" cx="13.5" cy="19" r="2.75"/>
 <circle style="fill:#3d3226;stroke:#ae8e6c;stroke-width:0.5;stroke-linecap:round;stroke-linejoin:round" cx="13.25" cy="22" r="1.25"/>
 <circle style="fill:#3d3226;stroke:#ae8e6c;stroke-width:0.5;stroke-linecap:round;stroke-linejoin:round" cx="15.75" cy="16.75" r="2.5"/>
 <circle style="fill:#3d3226;stroke:#ae8e6c;stroke-width:0.5;stroke-linecap:round;stroke-linejoin:round" cx="16.5" cy="20" r="3.25"/>
</svg>

<svg xmlns="http://www.w3.org/2000/svg" width="32" height="32" version="1"><rect style="opacity:.2" width="28" height="18" x="2" y="11" rx="1.4" ry="1.4"/><path style="fill:#957552" d="M2 22.6c0 .776.624 1.4 1.4 1.4h25.2c.776 0 1.4-.624 1.4-1.4V7.4c0-.776-.624-1.4-1.4-1.4H16c-2.1 0-2.8-3-4.9-3H3.4C2.624 3 2 3.624 2 4.4"/><rect style="opacity:.2" width="28" height="18" x="2" y="9" rx="1.4" ry="1.4"/><rect style="fill:#e4e4e4" width="24" height="11" x="4" y="8" rx="1.4" ry="1.4"/><rect style="fill:#ae8e6c" width="28" height="18" x="2" y="10" rx="1.4" ry="1.4"/><path style="opacity:.1;fill:#fff" d="M3.4 3C2.625 3 2 3.625 2 4.4v1C2 4.625 2.625 4 3.4 4h7.7c2.1 0 2.8 3 4.9 3h12.6c.775 0 1.4.625 1.4 1.4v-1c0-.775-.625-1.4-1.4-1.4H16c-2.1 0-2.8-3-4.9-3z"/><circle style="fill:#3d3226;stroke:#ae8e6c;stroke-width:.5;stroke-linecap:round;stroke-linejoin:round" cx="18.5" cy="18" r="2.25"/><circle style="fill:#3d3226;stroke:#ae8e6c;stroke-width:.5;stroke-linecap:round;stroke-linejoin:round" cx="23" cy="22" r="1.25"/><circle style="fill:#3d3226;stroke:#ae8e6c;stroke-width:.5;stroke-linecap:round;stroke-linejoin:round" cx="20.25" cy="20.75" r="2.5"/><circle style="fill:#3d3226;stroke:#ae8e6c;stroke-width:.5;stroke-linecap:round;stroke-linejoin:round" cx="11" cy="21" r="2.25"/><circle style="fill:#3d3226;stroke:#ae8e6c;stroke-width:.5;stroke-linecap:round;stroke-linejoin:round" cx="13.25" cy="16.25" r="1.5"/><circle style="fill:#3d3226;stroke:#ae8e6c;stroke-width:.5;stroke-linecap:round;stroke-linejoin:round" cx="13.5" cy="19" r="2.75"/><circle style="fill:#3d3226;stroke:#ae8e6c;stroke-width:.5;stroke-linecap:round;stroke-linejoin:round" cx="13.25" cy="22" r="1.25"/><circle style="fill:#3d3226;stroke:#ae8e6c;stroke-width:.5;stroke-linecap:round;stroke-linejoin:round" cx="15.75" cy="16.75" r="2.5"/><circle style="fill:#3d3226;stroke:#ae8e6c;stroke-width:.5;stroke-linecap:round;stroke-linejoin:round" cx="16.5" cy="20" r="3.25"/></svg>
